X:532371
F:http://www.vwml.org/record/HAM/5/32/37%%VWML:HAM-5-32-37-0
T:Trees They Grow so High, The
S:Mrs Marina Russell, Upwey coll. HED Hammond
O:England
A:Dorset
N:Transcribed from HAM-05-093.gif
F:HAM-05-32-37.abc
Z:EFDSS;PJHeadford
%%stretchlast 0
M:C
L:1/8
Q:2/4=50
K:C
"^Verse 1)"\
D D|D> G G> AB2A> A|A> D D< DD2zF|F> F F> F F> F F> F|
E> C C> CC2c c|\
M:6/8
c3 B2G|\
M:9/8
A2B c3 d>c B|\
M:C
c> c B> A D>C D> E|
F> F ((3(FE) D)C2 "_*"B,> C|DHG3z2||
W:Transcribed from HAM-05-093.gif Purslow annotates the note at * with: B flattened once (H.E.D. H.)
